_includes/icons/color-hourglass.svg

<svg fill="#666" height="50" viewBox="0 0 48 48" width="50" xmlns="http://www.w3.org/2000/svg"><path d="m33 34.25c0-4.972656-9-12.375-9-12.375s-9 7.402344-9 12.375 4.027344 7.875 9 7.875 9-2.902344 9-7.875z" fill="#bbdefb"/><path d="m33 13.75c0 4.972656-9 12.375-9 12.375s-9-7.402344-9-12.375 4.027344-7.875 9-7.875 9 2.902344 9 7.875z" fill="#bbdefb"/><g fill="#ff9800"><path d="m17.699219 16c1.234375 2.371094 3.90625 5.3125 6.300781 7.480469 2.394531-2.167969 5.066406-5.109375 6.300781-7.480469z"/><path d="m25 26c0 .554688-.449219 1-1 1s-1-.445312-1-1c0-.550781.449219-1 1-1s1 .449219 1 1z"/><path d="m25 29c0 .554688-.449219 1-1 1s-1-.445312-1-1c0-.550781.449219-1 1-1s1 .449219 1 1z"/><path d="m24 40.125c2.308594 0 4.886719-.792969 6.171875-2.824219-2.640625-3.394531-6.171875-6.300781-6.171875-6.300781s-3.53125 2.90625-6.171875 6.300781c1.285156 2.03125 3.863281 2.824219 6.171875 2.824219z"/></g><path d="m33 39c0-.554687-.445312-1-1-1h-16c-.550781 0-1 .445313-1 1v4c0 .554688.449219 1 1 1h16c.554688 0 1-.445312 1-1z" fill="#6d4c41"/><path d="m33 9c0 .554688-.445312 1-1 1h-16c-.550781 0-1-.445312-1-1v-4c0-.554687.449219-1 1-1h16c.554688 0 1 .445313 1 1z" fill="#6d4c41"/><g fill="#8d6e63"><path d="m36 42c0-.554687-.445312-1-1-1h-22c-.550781 0-1 .445313-1 1v1c0 .554688.449219 1 1 1h22c.554688 0 1-.445312 1-1z"/><path d="m36 6c0 .554688-.445312 1-1 1h-22c-.550781 0-1-.445312-1-1v-1c0-.554687.449219-1 1-1h22c.554688 0 1 .445313 1 1z"/></g></svg>

<svg xmlns="http://www.w3.org/2000/svg" viewBox="0 0 48 48" width="50" height="50" fill="#666"><path d="M 33 34.25 C 33 29.277344 24 21.875 24 21.875 C 24 21.875 15 29.277344 15 34.25 C 15 39.222656 19.027344 42.125 24 42.125 C 28.972656 42.125 33 39.222656 33 34.25 Z" fill="#bbdefb"/><path d="M 33 13.75 C 33 18.722656 24 26.125 24 26.125 C 24 26.125 15 18.722656 15 13.75 C 15 8.777344 19.027344 5.875 24 5.875 C 28.972656 5.875 33 8.777344 33 13.75 Z" fill="#bbdefb"/><path d="M 17.699219 16 C 18.933594 18.371094 21.605469 21.3125 24 23.480469 C 26.394531 21.3125 29.066406 18.371094 30.300781 16 Z" fill="#ff9800"/><path d="M 25 26 C 25 26.554688 24.550781 27 24 27 C 23.449219 27 23 26.554688 23 26 C 23 25.449219 23.449219 25 24 25 C 24.550781 25 25 25.449219 25 26 Z" fill="#ff9800"/><path d="M 25 29 C 25 29.554688 24.550781 30 24 30 C 23.449219 30 23 29.554688 23 29 C 23 28.449219 23.449219 28 24 28 C 24.550781 28 25 28.449219 25 29 Z" fill="#ff9800"/><path d="M 24 40.125 C 26.308594 40.125 28.886719 39.332031 30.171875 37.300781 C 27.53125 33.90625 24 31 24 31 C 24 31 20.46875 33.90625 17.828125 37.300781 C 19.113281 39.332031 21.691406 40.125 24 40.125 Z" fill="#ff9800"/><path d="M 33 39 C 33 38.445313 32.554688 38 32 38 L 16 38 C 15.449219 38 15 38.445313 15 39 L 15 43 C 15 43.554688 15.449219 44 16 44 L 32 44 C 32.554688 44 33 43.554688 33 43 Z" fill="#6d4c41"/><path d="M 33 9 C 33 9.554688 32.554688 10 32 10 L 16 10 C 15.449219 10 15 9.554688 15 9 L 15 5 C 15 4.445313 15.449219 4 16 4 L 32 4 C 32.554688 4 33 4.445313 33 5 Z" fill="#6d4c41"/><path d="M 36 42 C 36 41.445313 35.554688 41 35 41 L 13 41 C 12.449219 41 12 41.445313 12 42 L 12 43 C 12 43.554688 12.449219 44 13 44 L 35 44 C 35.554688 44 36 43.554688 36 43 Z" fill="#8d6e63"/><path d="M 36 6 C 36 6.554688 35.554688 7 35 7 L 13 7 C 12.449219 7 12 6.554688 12 6 L 12 5 C 12 4.445313 12.449219 4 13 4 L 35 4 C 35.554688 4 36 4.445313 36 5 Z" fill="#8d6e63"/></svg>
